X: 36059
T: Scartaglen, The
R: polka
M: 2/4
K: Gmajor
|:"G" G2 G>A|"G" Bd "D"f2|"G" gB B/A/G/A/|"D" BA AB/A/|
"G" G2 G>A|"G" Bd "D"f2|"G" gB "A" AB/A/|"G" G2 G2:|
|:"G" Bd ga/g/|"C"fe e/f/g/e/|"G"dB B/A/G/A/|"D" BA A2|
"G" Bd ga/g/|"C"fe e/f/g/e/|"G" dB "A" AB/A/|1 "G" G2 G2:|2 "G" G2 Gd||
|:"G" [g2B2] "D" [a2A2]|"G" [b3B3] d|"G" [g2B2] "D" [a2A2]|"G" [b3B3] d|
"C"ge e/f/g/e/|"G" dB "C"g>e|"G" dB "D"AB/A/|1 "G" G2 Gd:|2 "G" G4||

